X:1019
T:Duncan McQueen.
M:C|
L:1/8
Q:1/4=120
I: || || || ||
Z:Jack Campin * www.campin.me.uk * 2009
K:A Minor
   EA``````AA      c>A``A>e|  e>d```d>c  AG G2|(EA).A.A c>AAe | e>c`````de     cA A2:|
   e>c`````Ae      c<A``e>c| (e>d)`(d>c) GG G2| e>c`Ae  c<Ae>c| d>e`````dc    (cA)A2 |
   e>c`````Ae      c<A``e>c|  e>d```d>c  AG`GA| c>A`c>d e>dce | c<A`````f>d   (cA)A2||
   A<a`````a>g     a2   ac'|  eg````ge   eg g2| ea``ag  a2 ac'|(a/g/)e (e/d/)c A2 Ag |
(3(aba) (3(gag) (3(ege) cd |(3ege (3edc  AG`GA| c>A`c>d e>dce | c>A`````f>d    cA A2||
   E>c`````G>c     E>c``G>c|  e>d```d>c  A>GG2| E>c`G>c E>cG>c| e>c`````de     cA A2:|
<end>
<start>
